Papirus/22x22/panel/hipchat4.svg

<?xml version="1.0" encoding="UTF-8" standalone="no"?>
<svg xmlns:dc="http://purl.org/dc/elements/1.1/" xmlns:cc="http://creativecommons.org/ns#" xmlns:rdf="http://www.w3.org/1999/02/22-rdf-syntax-ns#" xmlns:svg="http://www.w3.org/2000/svg" xmlns="http://www.w3.org/2000/svg" id="svg2" viewBox="0 0 22 22" version="1.1" width="22" height="22">
    <metadata id="metadata14">
        <rdf:RDF>
            <cc:Work rdf:about="">
                <dc:format>
                    image/svg+xml
                </dc:format>
                <dc:type rdf:resource="http://purl.org/dc/dcmitype/StillImage"/>
                <dc:title/>
            </cc:Work>
        </rdf:RDF>
    </metadata>
    <path id="path6" d="M 11 2.9433594 C 6.6321693 2.9433594 2.9999997 6.2714963 3 10.443359 C 3 14.615223 6.6321695 17.943359 11 17.943359 A 1.0001 1.0001 0 0 0 11.001953 17.943359 C 11.614308 17.942059 12.215061 17.824888 12.810547 17.693359 C 14.038717 18.501853 15.474734 19.232461 17.177734 18.925781 A 1.0001 1.0001 0 0 0 17.726562 17.255859 C 17.143999 16.639702 16.836092 16.256497 16.818359 15.435547 C 18.149351 14.068363 18.998133 12.326388 19 10.443359 C 19 6.2714963 15.367831 2.9433594 11 2.9433594 z M 11 4.9433594 C 14.36342 4.9433594 16.998846 7.4344522 17 10.441406 C 16.9985 11.940856 16.332959 13.379753 15.126953 14.427734 A 1.0001 1.0001 0 0 0 14.785156 15.130859 C 14.752826 15.759639 14.94683 16.237784 15.128906 16.716797 C 14.629402 16.513411 14.122601 16.222525 13.576172 15.84375 A 1.0001 1.0001 0 0 0 12.736328 15.703125 C 12.174124 15.860617 11.588796 15.941952 11 15.943359 C 7.635844 15.943359 5 13.451198 5 10.443359 C 4.9999998 7.4355212 7.6358439 4.9433594 11 4.9433594 z M 14.015625 11.785156 A 0.750075 0.750075 0 0 0 13.548828 11.943359 C 12.643796 12.625482 11.808648 12.928106 10.998047 12.929688 C 10.187446 12.931287 9.3582283 12.633061 8.4550781 11.945312 A 0.75041528 0.75041528 0 1 0 7.5449219 13.138672 C 8.6417717 13.973923 9.8125543 14.432006 11.001953 14.429688 C 12.191352 14.427388 13.356204 13.965902 14.451172 13.140625 A 0.750075 0.750075 0 0 0 14.015625 11.785156 z " style="color:#000000;font-style:normal;font-variant:normal;font-weight:normal;font-stretch:normal;font-size:medium;line-height:normal;font-family:sans-serif;text-indent:0;text-align:start;text-decoration:none;text-decoration-line:none;text-decoration-style:solid;text-decoration-color:#000000;letter-spacing:normal;word-spacing:normal;text-transform:none;direction:ltr;block-progression:tb;writing-mode:lr-tb;baseline-shift:baseline;text-anchor:start;white-space:normal;clip-rule:nonzero;display:inline;overflow:visible;visibility:visible;opacity:1;isolation:auto;mix-blend-mode:normal;color-interpolation:sRGB;color-interpolation-filters:linearRGB;solid-color:#000000;solid-opacity:1;fill:#ffffff;fill-opacity:1;fill-rule:nonzero;stroke:none;stroke-width:1.5;stroke-linecap:round;stroke-linejoin:miter;stroke-miterlimit:4;stroke-dasharray:none;stroke-dashoffset:0;stroke-opacity:1;color-rendering:auto;image-rendering:auto;shape-rendering:auto;text-rendering:auto;enable-background:accumulate"/>
</svg>

<?xml version="1.0" encoding="UTF-8" standalone="no"?>
<svg id="svg2" xmlns:rdf="http://www.w3.org/1999/02/22-rdf-syntax-ns#" xmlns="http://www.w3.org/2000/svg" viewBox="0 0 22 22" width="22" version="1.1" xmlns:cc="http://creativecommons.org/ns#" height="22" xmlns:dc="http://purl.org/dc/elements/1.1/">
 <metadata id="metadata14">
  <rdf:RDF>
   <cc:Work rdf:about="">
    <dc:format>image/svg+xml</dc:format>
    <dc:type rdf:resource="http://purl.org/dc/dcmitype/StillImage"/>
    <dc:title/>
   </cc:Work>
  </rdf:RDF>
 </metadata>
 <path id="path6" style="color-rendering:auto;text-decoration-color:#000000;color:#000000;isolation:auto;mix-blend-mode:normal;shape-rendering:auto;solid-color:#000000;block-progression:tb;text-decoration-line:none;text-decoration-style:solid;image-rendering:auto;white-space:normal;text-indent:0;text-transform:none" d="m11 2.9434c-4.3678 0-8 3.3281-8 7.4996 0 4.172 3.6322 7.5 8 7.5a1.0001 1.0001 0 0 0 0.002 0c0.612-0.001 1.213-0.118 1.809-0.25 1.228 0.809 2.664 1.539 4.367 1.233a1.0001 1.0001 0 0 0 0.549 -1.67c-0.583-0.616-0.891-1-0.909-1.82 1.331-1.368 2.18-3.11 2.182-4.993 0-4.1715-3.632-7.4996-8-7.4996zm0 2c3.363 0 5.999 2.4911 6 5.4976-0.002 1.5-0.667 2.939-1.873 3.987a1.0001 1.0001 0 0 0 -0.342 0.703c-0.032 0.629 0.162 1.107 0.344 1.586-0.5-0.204-1.006-0.494-1.553-0.873a1.0001 1.0001 0 0 0 -0.84 -0.141c-0.562 0.158-1.147 0.239-1.736 0.24-3.3642 0-6-2.492-6-5.5 0-3.0075 2.6358-5.4996 6-5.4996zm3.016 6.8416a0.75008 0.75008 0 0 0 -0.467 0.158c-0.905 0.682-1.74 0.985-2.551 0.987-0.811 0.001-1.6398-0.297-2.5429-0.985a0.75042 0.75042 0 1 0 -0.9102 1.194c1.0969 0.835 2.2677 1.293 3.4571 1.291 1.189-0.003 2.354-0.464 3.449-1.289a0.75008 0.75008 0 0 0 -0.435 -1.356z" fill="#fff"/>
</svg>
